assets/images/ico_edit.svg

<svg width="14" height="13" viewBox="0 0 14 13" fill="none" xmlns="http://www.w3.org/2000/svg">
<path fill-rule="evenodd" clip-rule="evenodd" d="M11.1159 5.12225C11.0301 5.20713 10.9181 5.25 10.8061 5.25H10.4439C10.3319 5.25 10.2199 5.20713 10.1341 5.12225L8.12775 3.11588C8.04288 3.03012 8 2.91812 8 2.80612V2.44388C8 2.33188 8.04288 2.21988 8.12775 2.13412L10.1341 0.12775C10.2199 0.042875 10.3319 0 10.4439 0H10.8061C10.9181 0 11.0301 0.042875 11.1159 0.12775L13.1222 2.13412C13.2071 2.21988 13.25 2.33188 13.25 2.44388V2.80612C13.25 2.91812 13.2071 3.03012 13.1222 3.11588L11.1159 5.12225ZM0.12775 9.88412C0.042875 9.96988 0 10.0819 0 10.1939V12.5625C0 12.804 0.196 13 0.4375 13H2.80612C2.91812 13 3.03013 12.9571 3.11588 12.8722L9.49725 6.49087C9.58212 6.40512 9.625 6.29312 9.625 6.18112V5.81888C9.625 5.70688 9.58212 5.59488 9.49725 5.50913L7.49087 3.50275C7.40512 3.41787 7.29312 3.375 7.18112 3.375H6.81888C6.70688 3.375 6.59488 3.41787 6.50913 3.50275L0.12775 9.88412Z" fill="white"/>
</svg>

<svg width="14" height="13" fill="none" xmlns="http://www.w3.org/2000/svg"><path fill-rule="evenodd" clip-rule="evenodd" d="M11.116 5.122a.44.44 0 0 1-.31.128h-.362a.44.44 0 0 1-.31-.128L8.128 3.116A.44.44 0 0 1 8 2.806v-.362a.44.44 0 0 1 .128-.31L10.134.128a.44.44 0 0 1 .31-.128h.362a.44.44 0 0 1 .31.128l2.006 2.006a.44.44 0 0 1 .128.31v.362a.44.44 0 0 1-.128.31l-2.006 2.006zM.128 9.884a.44.44 0 0 0-.128.31v2.368c0 .242.196.438.438.438h2.368a.44.44 0 0 0 .31-.128l6.381-6.381a.44.44 0 0 0 .128-.31V5.82a.44.44 0 0 0-.128-.31L7.491 3.503a.44.44 0 0 0-.31-.128H6.82a.44.44 0 0 0-.31.128L.128 9.884z" fill="#fff"/></svg>
